packages/core/src/svgs/tokens/branded/ZERO.svg

<svg width="24" height="24" viewBox="0 0 24 24" fill="none" xmlns="http://www.w3.org/2000/svg">
<path fill-rule="evenodd" clip-rule="evenodd" d="M11.9999 21.4499C14.5062 21.4499 16.9098 20.4543 18.6821 18.6822C20.4543 16.9098 21.4499 14.5062 21.4499 11.9999C21.4499 9.49367 20.4543 7.09003 18.6821 5.31783C16.9098 3.54561 14.5062 2.54999 11.9999 2.54999C9.49365 2.54999 7.09005 3.54561 5.31783 5.31783C3.54561 7.09003 2.54999 9.49367 2.54999 11.9999C2.54999 14.5062 3.54561 16.9098 5.31783 18.6822C7.09005 20.4543 9.49365 21.4499 11.9999 21.4499ZM11.9999 22C14.652 22 17.1957 20.9464 19.0711 19.0709C20.9463 17.1957 22 14.6521 22 11.9999C22 9.34783 20.9463 6.80427 19.0711 4.92892C17.1957 3.05355 14.652 2 11.9999 2C9.34782 2 6.80427 3.05355 4.92892 4.92892C3.05355 6.80427 2 9.34783 2 11.9999C2 14.6521 3.05355 17.1957 4.92892 19.0709C6.80427 20.9464 9.34782 22 11.9999 22Z" fill="#FCE058"/>
<path fill-rule="evenodd" clip-rule="evenodd" d="M12 20.9C14.3604 20.9 16.6242 19.9623 18.2933 18.2933C19.9623 16.6242 20.9 14.3605 20.9 12C20.9 9.63955 19.9623 7.37586 18.2933 5.70679C16.6242 4.03772 14.3604 3.10004 12 3.10004C9.63954 3.10004 7.37586 4.03772 5.70679 5.70679C4.03772 7.37586 3.10004 9.63955 3.10004 12C3.10004 14.3605 4.03772 16.6242 5.70679 18.2933C7.37586 19.9623 9.63954 20.9 12 20.9ZM12 21.45C14.5063 21.45 16.9099 20.4544 18.6822 18.6822C20.4544 16.9099 21.45 14.5063 21.45 12C21.45 9.49372 20.4544 7.09009 18.6822 5.31788C16.9099 3.54566 14.5063 2.55005 12 2.55005C9.4937 2.55005 7.0901 3.54566 5.31788 5.31788C3.54566 7.09009 2.55005 9.49372 2.55005 12C2.55005 14.5063 3.54566 16.9099 5.31788 18.6822C7.0901 20.4544 9.4937 21.45 12 21.45Z" fill="white"/>
<path d="M15.7499 7.625H8.25V9.49996H12.8125L8.25 14.9375V16.375H15.7499V14.5H11.2625L15.7499 9.08124V7.625Z" fill="white"/>
</svg>

<svg xmlns="http://www.w3.org/2000/svg" width="24" height="24" fill="none" viewBox="0 0 24 24">
    <path fill="#FCE058" fill-rule="evenodd" d="M12 21.45a9.45 9.45 0 1 0 0-18.901 9.45 9.45 0 0 0 0 18.9m0 .55a10 10 0 1 0 0-20 10 10 0 0 0 0 20" clip-rule="evenodd"/>
    <path fill="#fff" fill-rule="evenodd" d="M12 20.9a8.9 8.9 0 1 0 0-17.8 8.9 8.9 0 0 0 0 17.8m0 .55a9.45 9.45 0 1 0 0-18.9 9.45 9.45 0 0 0 0 18.9" clip-rule="evenodd"/>
    <path fill="#fff" d="M15.75 7.625h-7.5V9.5h4.563L8.25 14.938v1.437h7.5V14.5h-4.488l4.488-5.419z"/>
</svg>
